dataset/monero/icon.svg

<?xml version="1.0" encoding="UTF-8" standalone="no"?>
<svg
   width="128"
   height="128"
   viewBox="0 0 128 128"
   fill="none"
   version="1.1"
   id="svg24"
   xmlns:xlink="http://www.w3.org/1999/xlink"
   xmlns="http://www.w3.org/2000/svg"
   xmlns:svg="http://www.w3.org/2000/svg">
  <defs
     id="defs28">
    <linearGradient
       xlink:href="#linearGradient17"
       id="linearGradient5"
       x1="-104.64275"
       y1="176.5119"
       x2="3.3572464"
       y2="176.5119"
       gradientUnits="userSpaceOnUse"
       gradientTransform="matrix(1.1111111,0,0,1.0925926,120.26973,-126.85559)" />
    <linearGradient
       id="linearGradient17"
       gradientUnits="userSpaceOnUse"
       x1="0"
       y1="269.46301"
       x2="118.926"
       y2="269.46301"
       gradientTransform="matrix(1,0,0,0.98333333,-118,-175.03333)">
      <stop
         offset="0"
         stop-color="#e5a50a"
         id="stop14"
         style="stop-color:#000000;stop-opacity:1;" />
      <stop
         offset="0.414"
         stop-color="#fbdf9b"
         id="stop15"
         style="stop-color:#ffffff;stop-opacity:1;" />
      <stop
         offset="0.81300002"
         stop-color="#e5a50a"
         id="stop16"
         style="stop-color:#000000;stop-opacity:1;" />
      <stop
         offset="1"
         stop-color="#f8ca5b"
         id="stop17"
         style="stop-color:#b2b2b2;stop-opacity:1;" />
    </linearGradient>
  </defs>
  <path
     d="M 124,66.000004 C 124,98.583359 97.138411,125 63.9984,125 30.8619,125 4.0000006,98.583988 4.0000006,66.000004 4.0000006,33.413507 30.8619,7.0000012 63.9984,7.0000012 97.1381,7.0000012 124,33.413191 124,66.000004"
     fill="#ffffff"
     id="path2-7-26-9"
     style="fill:#575757;fill-opacity:1;stroke-width:1.46905"
     clip-path="none" />
  <path
     d="m 63.997589,7.0000012 c -33.126911,0 -60.033544,26.4504758 -59.9920217,58.9910408 0.00889,6.510377 1.1061888,12.901953 3.0880555,18.75991 l 18.0414772,0.0045 -0.03067,-49.589414 38.895544,38.304136 38.920506,-38.248607 -0.11247,49.546186 18.09346,-0.0025 c 1.98451,-5.857641 3.08138,-12.263387 3.09292,-18.77408 C 124.05217,33.417284 97.1296,7.0063819 63.999178,7.0063819 Z"
     fill="#f36e36"
     id="path3-7-3-2"
     style="fill:#f36e36;fill-opacity:1;stroke-width:1.46905"
     clip-path="none" />
  <path
     d="m 24.993878,35.115456 v 49.625466 l -17.9079774,-4.387087 -0.00889,4.387087 c 1.4350777,4.238677 3.3896334,8.271305 5.7137224,12.021383 l -0.01,-4.385821 12.214744,4.389317 H 38.007634 V 65.539471 L 55.0237,82.271929 h 0.0022 l 8.964845,8.815429 25.983066,-25.547887 v 31.226381 h 13.012149 l 12.22958,-4.385701 -0.008,4.383186 c 2.32386,-3.749921 4.26211,-7.78404 5.69721,-12.022405 l 0.009,-4.38717 -17.92969,4.38717 V 35.115466 L 63.988967,73.456499 Z"
     style="fill:#ffffff;fill-opacity:1;stroke-width:1.46905"
     id="path1-9" />
  <path
     id="circle2-6"
     style="opacity:0.4;fill:url(#linearGradient5);stroke-width:0.343027"
     d="M 124.00001,66.000004 A 59.999999,58.999999 0 0 1 64.000005,125 59.999999,58.999999 0 0 1 3.9999953,66.000004 a 59.999999,58.999999 0 0 1 60.0000097,-59 59.999999,58.999999 0 0 1 60.000005,59 z" />
  <path
     d="M 124,62.000003 C 124,94.583359 97.138411,121 63.9984,121 30.8619,121 4.0000006,94.583987 4.0000006,62.000003 4.0000006,29.413507 30.8619,3.0000008 63.9984,3.0000008 97.1381,3.0000008 124,29.413191 124,62.000003"
     fill="#ffffff"
     id="path2-7-26"
     style="fill:#575757;fill-opacity:1;stroke-width:1.46905"
     clip-path="none" />
  <path
     d="m 63.997567,3.0000008 c -33.126911,0 -60.0335442,26.4504762 -59.992022,58.9910412 0.00889,6.510377 1.1061889,12.901953 3.0880556,18.75991 l 18.0414774,0.0045 -0.03067,-49.589414 38.895544,38.304136 38.920508,-38.248608 -0.11247,49.546187 18.09345,-0.0025 c 1.98451,-5.85764 3.08139,-12.263386 3.09293,-18.77408 C 124.05214,29.417284 97.129577,3.0063815 63.999156,3.0063815 Z"
     fill="#f36e36"
     id="path3-7-3"
     style="stroke-width:1.46905"
     clip-path="none" />
  <path
     d="M 25.002567,31.098739 V 80.724205 H 7.0859006 c 1.4350777,4.238677 3.3713224,8.272572 5.6954114,12.022649 l 12.223433,0.0022 H 38.0169 v -31.22633 l 17.016067,16.732458 h 0.0022 L 64.000033,87.070596 89.9831,61.522709 V 92.74909 h 13.01214 l 12.22089,0.0014 C 117.54,89.00059 119.479,84.962497 120.9141,80.724132 H 102.99308 V 31.098666 L 63.997856,69.439699 Z"
     style="fill:#ffffff;stroke-width:1.46905"
     id="path1" />
</svg>

<svg xmlns="http://www.w3.org/2000/svg" xmlns:xlink="http://www.w3.org/1999/xlink" width="128" height="128" fill="none" viewBox="0 0 128 128"><defs><linearGradient xlink:href="#a" id="b" x1="-104.643" x2="3.357" y1="176.512" y2="176.512" gradientTransform="matrix(1.11111 0 0 1.0926 120.27 -126.856)" gradientUnits="userSpaceOnUse"/><linearGradient id="a" x1="0" x2="118.926" y1="269.463" y2="269.463" gradientTransform="matrix(1 0 0 .98333 -118 -175.033)" gradientUnits="userSpaceOnUse"><stop offset="0" stop-color="#e5a50a" style="stop-color:#000;stop-opacity:1"/><stop offset=".414" stop-color="#fbdf9b" style="stop-color:#fff;stop-opacity:1"/><stop offset=".813" stop-color="#e5a50a" style="stop-color:#000;stop-opacity:1"/><stop offset="1" stop-color="#f8ca5b" style="stop-color:#b2b2b2;stop-opacity:1"/></linearGradient></defs><path fill="#fff" d="M124 66c0 32.583-26.862 59-60.002 59C30.862 125 4 98.584 4 66 4 33.414 30.862 7 63.998 7 97.138 7 124 33.413 124 66" style="fill:#575757;fill-opacity:1;stroke-width:1.46905"/><path fill="#f36e36" d="M63.998 7C30.87 7 3.964 33.45 4.006 65.991a59 59 0 0 0 3.088 18.76l18.041.004-.03-49.589L64 73.47l38.92-38.248-.112 49.546 18.093-.003a59.2 59.2 0 0 0 3.093-18.774C124.052 33.417 97.13 7.006 64 7.006Z" style="fill:#f36e36;fill-opacity:1;stroke-width:1.46905"/><path d="M24.994 35.115v49.626L7.086 80.354l-.009 4.387c1.435 4.239 3.39 8.271 5.714 12.021l-.01-4.386 12.214 4.39h13.013V65.539l17.016 16.733h.002l8.965 8.815L89.974 65.54v31.227h13.012l12.23-4.386-.008 4.383a58.5 58.5 0 0 0 5.697-12.022l.009-4.387-17.93 4.387V35.115L63.99 73.456Z" style="fill:#fff;fill-opacity:1;stroke-width:1.46905"/><path d="M124 66a60 59 0 0 1-60 59A60 59 0 0 1 4 66 60 59 0 0 1 64 7a60 59 0 0 1 60 59" style="opacity:.4;fill:url(#b);stroke-width:.343027"/><path fill="#fff" d="M124 62c0 32.583-26.862 59-60.002 59C30.862 121 4 94.584 4 62 4 29.414 30.862 3 63.998 3 97.138 3 124 29.413 124 62" style="fill:#575757;fill-opacity:1;stroke-width:1.46905"/><path fill="#f36e36" d="M63.998 3C30.87 3 3.964 29.45 4.006 61.991a59 59 0 0 0 3.088 18.76l18.041.004-.03-49.589L64 69.47l38.92-38.248-.112 49.546 18.093-.003a59.2 59.2 0 0 0 3.093-18.774C124.052 29.417 97.13 3.006 64 3.006Z" style="stroke-width:1.46905"/><path d="M25.003 31.099v49.625H7.086a58.5 58.5 0 0 0 5.695 12.023l12.224.002h13.012V61.523l17.016 16.732h.002L64 87.071l25.983-25.548v31.226h13.012l12.221.001a58.5 58.5 0 0 0 5.698-12.026h-17.92V31.1l-38.996 38.34Z" style="fill:#fff;stroke-width:1.46905"/></svg>
